icons/calendar-arrow-left-outline.svg

<svg xmlns="http://www.w3.org/2000/svg" width="24" height="24" viewBox="0 0 24 24">
  <path d="M16,1 C16.5128358,1 16.9355072,1.38604019 16.9932723,1.88337887 L17,2 L17,3 L18,3 C20.1421954,3 21.8910789,4.68396847 21.9951047,6.80035966 L22,7 L22,19 C22,21.1421954 20.3160315,22.8910789 18.1996403,22.9951047 L18,23 L6,23 C3.85780461,23 2.10892112,21.3160315 2.00489531,19.1996403 L2,19 L2,7 C2,4.85780461 3.68396847,3.10892112 5.80035966,3.00489531 L6,3 L7,3 L7,2 C7,1.44771525 7.44771525,1 8,1 C8.51283584,1 8.93550716,1.38604019 8.99327227,1.88337887 L9,2 L9,3 L15,3 L15,2 C15,1.44771525 15.4477153,1 16,1 Z M20,11 L4,11 L4,19 C4,20.0543618 4.81587779,20.9181651 5.85073766,20.9945143 L6,21 L18,21 C19.0543618,21 19.9181651,20.1841222 19.9945143,19.1492623 L20,19 L20,11 Z M8.003,15.918 L8.01101934,15.8510388 L8.01101934,15.8510388 C8.01362808,15.834051 8.01670217,15.8166247 8.02024007,15.7992742 C8.0246398,15.7772539 8.02983363,15.7555635 8.03572097,15.7341604 C8.04009773,15.7185367 8.04472872,15.7031487 8.04973809,15.6878575 C8.05612249,15.6682023 8.06331574,15.6484208 8.07110396,15.6289415 L8.09367336,15.5767785 L8.09367336,15.5767785 C8.10337664,15.5561086 8.11379392,15.5357061 8.12487577,15.515723 C8.13149883,15.5036056 8.13860692,15.4913869 8.14599545,15.4792912 C8.1617187,15.453725 8.17849009,15.4288693 8.19631351,15.4048407 C8.20071786,15.3987914 8.20517454,15.3929267 8.20970461,15.3871006 C8.21507113,15.3803372 8.2173721,15.3774376 8.21968877,15.374551 L8.29289322,15.2928932 L11.2928932,12.2928932 C11.6834175,11.9023689 12.3165825,11.9023689 12.7071068,12.2928932 C13.0675907,12.6533772 13.0953203,13.2206082 12.7902954,13.6128994 L12.7071068,13.7071068 L11.415,15 L15,15 C15.5522847,15 16,15.4477153 16,16 C16,16.5128358 15.6139598,16.9355072 15.1166211,16.9932723 L15,17 L11.415,17 L12.7071068,18.2928932 C13.0976311,18.6834175 13.0976311,19.3165825 12.7071068,19.7071068 C12.3466228,20.0675907 11.7793918,20.0953203 11.3871006,19.7902954 L11.2928932,19.7071068 L8.29289322,16.7071068 L8.22,16.625 L8.19633458,16.5953066 L8.19633458,16.5953066 C8.17849009,16.5711307 8.1617187,16.546275 8.14606743,16.5206602 L8.12467117,16.4840621 L8.12467117,16.4840621 C8.11379392,16.4642939 8.10337664,16.4438914 8.09365378,16.4230991 L8.07122549,16.371336 L8.07122549,16.371336 C8.06331574,16.3515792 8.05612249,16.3317977 8.04954668,16.3117364 C8.04472872,16.2968513 8.04009773,16.2814633 8.03584514,16.265993 C8.02983363,16.2444365 8.0246398,16.2227461 8.02016515,16.2007941 C8.01670217,16.1833753 8.01362808,16.165949 8.0110178,16.1484669 L8.00399798,16.090032 L8.00399798,16.090032 C8.00307004,16.0791869 8.00232561,16.0691128 8.0017331,16.0590314 L8.00018018,16.019176 L8,16 L8,16 L8.001,15.98 L8.0017331,15.9409686 L8.00278786,15.9247615 L8.00278786,15.9247615 L8.002,15.94 L8.003,15.918 Z M7,5 L6,5 C4.9456382,5 4.08183488,5.81587779 4.00548574,6.85073766 L4,7 L4,9 L20,9 L20,7 C20,5.9456382 19.1841222,5.08183488 18.1492623,5.00548574 L18,5 L17,5 L17,6 C17,6.55228475 16.5522847,7 16,7 C15.4871642,7 15.0644928,6.61395981 15.0067277,6.11662113 L15,6 L15,5 L9,5 L9,6 C9,6.55228475 8.55228475,7 8,7 C7.48716416,7 7.06449284,6.61395981 7.00672773,6.11662113 L7,6 L7,5 Z"/>
</svg>

<svg xmlns="http://www.w3.org/2000/svg" viewBox="0 0 24 24">
  <path d="M16 1a1 1 0 0 1 1 .88V3h1a4 4 0 0 1 4 3.8V19a4 4 0 0 1-3.8 4H6a4 4 0 0 1-4-3.8V7a4 4 0 0 1 3.8-4H7V2a1 1 0 0 1 2-.12V3h6V2a1 1 0 0 1 1-1zm4 10H4v8a2 2 0 0 0 1.85 2H18a2 2 0 0 0 2-1.85V11zM8 15.92l.01-.07a1.08 1.08 0 0 1 .06-.22l.02-.05a1.02 1.02 0 0 1 .13-.2l.07-.09 3-3a1 1 0 0 1 1.5 1.32l-.08.1L11.4 15H15a1 1 0 0 1 .12 2H11.4l1.3 1.3a1 1 0 0 1-1.32 1.49l-.1-.08-3-3-.07-.09-.02-.02a1.03 1.03 0 0 1-.05-.08l-.03-.04a1.04 1.04 0 0 1-.03-.06l-.02-.05a.99.99 0 0 1-.06-.22v-.23.02-.02zM7 5H6a2 2 0 0 0-2 1.85V9h16V7a2 2 0 0 0-1.85-2H17v1a1 1 0 0 1-2 .12V5H9v1a1 1 0 0 1-2 .12V5z"/>
</svg>
